src/components/Icon/utils/svgsOptimized/folder.svg

<svg width="24" height="24" viewBox="0 0 24 24"  xmlns="http://www.w3.org/2000/svg">
<path d="M20.5 6.5H19.5C19.5 5.9 19.1 5.5 18.5 5.5H14.5C13.9 5.5 13.5 5.9 13.5 6.5H6.39999C5.89999 6.5 5.39999 6.9 5.39999 7.4L5.29999 9.5H3.49999C2.89999 9.5 2.39999 10 2.49999 10.6L4.49999 18.5H20.5L21.5 7.6C21.6 7 21.1 6.5 20.5 6.5ZM19.8 15.4L18.6 10.4C18.5 9.8 18.1 9.5 17.6 9.5H6.29999L6.49999 7.5H14.5V7C14.5 6.7 14.7 6.5 15 6.5H18C18.3 6.5 18.5 6.7 18.5 7V7.5H20.5L19.8 15.4Z" />
</svg>

<?xml version="1.0" encoding="utf-8"?><svg width="24" height="24" xmlns="http://www.w3.org/2000/svg" viewBox="0 0 24 24"><path d="M20.5 6.5h-1c0-.6-.4-1-1-1h-4c-.6 0-1 .4-1 1H6.4c-.5 0-1 .4-1 .9l-.1 2.1H3.5c-.6 0-1.1.5-1 1.1l2 7.9h16l1-10.9c.1-.6-.4-1.1-1-1.1Zm-.7 8.9-1.2-5c-.1-.6-.5-.9-1-.9H6.3l.2-2h8V7c0-.3.2-.5.5-.5h3c.3 0 .5.2.5.5v.5h2l-.7 7.9Z"/></svg>
